X: 1114
T: Hüseynîaşîrân Seyir
C: Erol Bingöl
O: Turkey
F: http://compmusic.upf.edu/node/140
N: huseyniasiran--seyir--duyek--1--erol_bingol
N: makam= huseyniasiran
N: form= seyir
N: usul= duyek = 8/4
M: 8/4
L: 1/16
K: C _1/4B ^f  
Q: 1/4=120
%%MIDI tuningsystem comma53
d2 e4 e2 g2 ^3/4fe e4  | d2 e2 c2 d2 c_2/4B BA A4  | \
w:   |   | 
g2 g4 ^3/4f2 f2 e2 g2 fe  | 
w:   | 
e6 d2 c2 d2 e4  | e2 ^3/4f2 g2 a2 g2 =f2 e2 d2  | \
w:   |   | 
c2 d4 e2 c3_2/4B A4  | G2 A2 =B2 A2 A2 G2 G2 ^3/4F2  | 
w:   |   | 
A3G ^3/4F2 FE E8  | |


